X:7
L:1/8
M:4/4
K:F
 ag | f2 d2 d2 f2 | edcd e2 dc | d2 A2 A3 A | GFEF G2 FE |
 D2 d2 d2 f2 | edcd e2 e2 | d2 A2 GFEC | D8 ||
 a2 a2 a2 gf | g2 e2 c4 | f2 fg f2 ed | e3 f e4 |
 d4 d2 cB | A2 F2 D4 | C4- CA,CE | D8 |]
